X:1
T:Honkytonk Asshole
M:3/4
L:1/8
K:G
 c2| d d3 d d-| d2- B2 z2| z B B2 A B-| BG z4| z2 dd| d e-| e2(3e3.99999962500005/5.99999925000009e3.99999962500005/5.99999925000009d3.99999962500005/5.99999925000009e3.99999962500005/5.99999925000009d3.99999962500005/5.99999925000009c3.99999962500005/5.99999925000009 c2|\
 c6| z6| z2 f2 ff| f2 z4| z2 c2 dd| dA z4| D F3 A2| ee d2 B2|d-A B4|\
 z6| z6| z4 B2| d d3 B d-| d6| z A B2 BA|B-A G2 d2| d2 z2 z d| d2 e2(3e3.99999962500005/5.99999925000009e3.99999962500005/5.99999925000009d3.99999962500005/5.99999925000009e3.99999962500005/5.99999925000009d3.99999962500005/5.99999925000009c3.99999962500005/5.99999925000009|\
 c6| z4 e2| f f4 e|f-e d3 B|d-cd-c c2|c-F F2 F2| c2 c2 c2| c2 B2A-G|\
 G6| G2 B2 d2| d6| B- G3 d2| d2e-B B B-| c6-| c2 z2 e2| f2 f2 f2|f-d d4-|\
 d4| dd| e2 d2 c2|d-A B2B-G| G2 B B- d2| d6| B- G3 z d| d2e-B B2| c6|\
 g3 d e2| d6| B- G2 B B2|B-F F2 F G-| G6-| G2 z2||
